images/tesla.svg

<svg width="107" height="16" viewBox="0 0 107 16" fill="none" xmlns="http://www.w3.org/2000/svg">
<path fill-rule="evenodd" clip-rule="evenodd" d="M2.75692 3.74634C1.35958 3.43124 0.302128 2.17086 0 0.910481L17.2591 0.871094V0.910481C16.9569 2.17086 15.9373 3.35247 14.5021 3.74634H10.1968L9.97023 3.82511V15.1292H7.28884V3.82511L7.06224 3.74634H2.75692ZM26.6535 3.73842H36.941C38.3889 3.46347 39.4558 2.128 39.7225 0.871094H23.8339C24.1388 2.128 25.2056 3.42419 26.6535 3.73842ZM103.239 3.73842H92.951C91.5412 3.42419 90.4744 2.128 90.1695 0.871094H106.02C105.715 2.128 104.686 3.46347 103.239 3.73842ZM90.5887 15.1292V6.52719H105.677V15.1292H103.01V9.39451H93.2558V15.1292H90.5887ZM82.4729 15.1292C83.8065 14.54 84.5304 13.5187 84.8353 12.3404H72.8331V0.910372H70.1279V15.1292H82.4729ZM59.6498 3.69914H50.1243L50.1624 6.52719H62.5075V15.1292H46.6952C47.3429 13.7544 48.6384 12.6939 50.1624 12.2618H59.8403V9.31595H47.4953V0.910372H62.5837C62.2789 2.128 61.0977 3.26708 59.6498 3.69914ZM36.941 9.35523H26.6535C25.2056 9.041 24.1388 7.74482 23.8339 6.48791H39.7225C39.4558 7.74482 38.3889 9.08028 36.941 9.35523ZM26.6535 15.1292H36.941C38.3889 14.8542 39.4558 13.5187 39.7225 12.2618H23.8339C24.1388 13.5187 25.2056 14.8542 26.6535 15.1292Z" fill="#36536B"/>
</svg>

<svg width="107" height="16" fill="none" xmlns="http://www.w3.org/2000/svg"><path fill-rule="evenodd" clip-rule="evenodd" d="M2.757 3.746C1.36 3.431.302 2.171 0 .91L17.26.871v.04a3.944 3.944 0 0 1-2.758 2.835h-4.305l-.227.08v11.303H7.29V3.825l-.227-.079H2.757Zm23.896-.008h10.288c1.448-.275 2.515-1.61 2.781-2.867H23.834c.305 1.257 1.372 2.553 2.82 2.867Zm76.586 0H92.951c-1.41-.314-2.477-1.61-2.781-2.867h15.85c-.305 1.257-1.334 2.592-2.781 2.867ZM90.589 15.13V6.527h15.088v8.602h-2.667V9.395h-9.754v5.734h-2.667Zm-8.116 0c1.334-.589 2.057-1.61 2.362-2.789H72.833V.91h-2.705v14.22h12.345ZM59.65 3.7h-9.526l.038 2.828h12.346v8.602H46.694c.648-1.375 1.943-2.435 3.467-2.867h9.678V9.316H47.495V.91h15.089c-.305 1.218-1.486 2.357-2.934 2.79ZM36.94 9.355H26.653c-1.447-.314-2.514-1.61-2.82-2.867h15.89c-.267 1.257-1.334 2.592-2.782 2.867ZM26.653 15.13h10.288c1.448-.275 2.515-1.61 2.781-2.867H23.834c.305 1.257 1.372 2.592 2.82 2.867Z" fill="#36536B"/></svg>
